src/icons/file.key.svg

<svg width="16" height="16" viewBox="0 0 16 16" fill="none" xmlns="http://www.w3.org/2000/svg">
<path fill-rule="evenodd" clip-rule="evenodd" d="M14 6C14 8.20914 12.2091 10 10 10C9.27143 10 8.58835 9.80521 8 9.46487V11H6V12H5V14H2V12L6.16503 7.1408C6.05765 6.77928 6 6.39637 6 6C6 3.79086 7.79086 2 10 2C12.2091 2 14 3.79086 14 6ZM12 5C12 5.55228 11.5523 6 11 6C10.4477 6 10 5.55228 10 5C10 4.44772 10.4477 4 11 4C11.5523 4 12 4.44772 12 5Z" fill="#E4D26F"/>
</svg>

<svg xmlns="http://www.w3.org/2000/svg" fill="none" viewBox="0 0 16 16">
  <path fill="#E4D26F" fill-rule="evenodd" d="M14 6c0 2.2091-1.7909 4-4 4a3.9816 3.9816 0 0 1-2-.5351V11H6v1H5v2H2v-2l4.165-4.8592A4.0008 4.0008 0 0 1 6 6c0-2.2091 1.7909-4 4-4 2.2091 0 4 1.7909 4 4Zm-2-1c0 .5523-.4477 1-1 1s-1-.4477-1-1 .4477-1 1-1 1 .4477 1 1Z" clip-rule="evenodd"/>
</svg>
